X: 38863
T: Sundays
R: waltz
M: 3/4
K: Dmajor
d>e|f2 ff/e/ f>a|g>f B2 B/A/B/d/|e2 d>e f2|f2 ff/e/ fa|
g>f B2 B>A|e<f d2 Ad/e/|f2 ff/e/ f>a|g>f B2 B/A/B/d/|
c2 A2 d>e|f2 ff/e/ f>a|g>f B2 B>A|e<f d2 d2||
f>a|e2 e2 d<e|f2 f2 f>a|e2 e2 a>g|f2 f2 e<d|
g2 g>a b<g|f2 f>g f<d|e2 e>d f<g|e2 e2 e>d|
e2 e2 e<d|f2 f2 f>a|e2 e2 a>g|f>e d2 f<d|
g2 g>a b<g|f2 f>g f<d|e2 ee/d/ ef|e2 ee/d/ ef||

